svg/teams.svg

<?xml version="1.0" encoding="UTF-8"?>
<svg xmlns="http://www.w3.org/2000/svg" xmlns:xlink="http://www.w3.org/1999/xlink" width="32.547001" height="32" viewBox="0 0 32.547001 32">
<defs>
<filter id="filter-remove-color" x="0%" y="0%" width="100%" height="100%">
<feColorMatrix color-interpolation-filters="sRGB" values="0 0 0 0 1 0 0 0 0 1 0 0 0 0 1 0 0 0 1 0" />
</filter>
<clipPath id="clip-0">
<path clip-rule="nonzero" d="M 0 0 L 32.625 0 L 32.625 32 L 0 32 Z M 0 0 "/>
</clipPath>
<image id="source-13" x="0" y="0" width="33" height="32" xlink:href="data:image/png;base64,iVBORw0KGgoAAAANSUhEUgAAACEAAAAgCAYAAACcuBHKAAAABmJLR0QA/wD/AP+gvaeTAAAAVklEQVRYhe3SuwqAMBBE0euj8f8/1VKiFqYIwWoQBbkH0gQmLLMBSfeGBzNHOsQcZJZ62mF2YAW2t4aYam5s7gpZq9A99JmkicJVe7+O+E9IkiRJv3QC298JDNtDLP0AAAAASUVORK5CYII="/>
<mask id="mask-0">
<g filter="url(#filter-remove-color)">
<use xlink:href="#source-13"/>
</g>
</mask>
<clipPath id="clip-1">
<rect x="0" y="0" width="33" height="32"/>
</clipPath>
<g id="source-12" clip-path="url(#clip-1)">
<path fill-rule="nonzero" fill="rgb(0%, 0%, 0%)" fill-opacity="1" d="M 16.859375 7 L 12.632812 7 L 12.652344 7.09375 L 12.65625 7.101562 L 12.675781 7.1875 C 13.316406 9.605469 15.746094 11.09375 18.191406 10.558594 L 18.191406 8.332031 C 18.1875 7.597656 17.59375 7.003906 16.859375 7 M 16.859375 7 "/>
</g>
<clipPath id="clip-2">
<rect x="0" y="0" width="33" height="32"/>
</clipPath>
<g id="source-15" clip-path="url(#clip-2)">
<g clip-path="url(#clip-0)">
<g mask="url(#mask-0)">
<use xlink:href="#source-12"/>
</g>
</g>
</g>
<clipPath id="clip-3">
<path clip-rule="nonzero" d="M 0 0 L 32.625 0 L 32.625 32 L 0 32 Z M 0 0 "/>
</clipPath>
<image id="source-27" x="0" y="0" width="33" height="32" xlink:href="data:image/png;base64,iVBORw0KGgoAAAANSUhEUgAAACEAAAAgCAYAAACcuBHKAAAABmJLR0QA/wD/AP+gvaeTAAAAVElEQVRYhe3OOwqEUBREwVJEXcXsf2FuwMTAD05iZPgUEenK7oWGQ0S8WHXTbn86osYP3XHPGLCURjQFmwot+tOvWEnEjhHTca/YrkRERERERHzSHxE6CPrd8uPIAAAAAElFTkSuQmCC"/>
<mask id="mask-1">
<g filter="url(#filter-remove-color)">
<use xlink:href="#source-27"/>
</g>
</mask>
<clipPath id="clip-4">
<rect x="0" y="0" width="33" height="32"/>
</clipPath>
<g id="source-26" clip-path="url(#clip-4)">
<path fill-rule="nonzero" fill="rgb(0%, 0%, 0%)" fill-opacity="1" d="M 15.859375 8 L 12.972656 8 C 13.746094 9.628906 15.386719 10.667969 17.191406 10.667969 L 17.191406 9.332031 C 17.1875 8.597656 16.59375 8.003906 15.859375 8 M 15.859375 8 "/>
</g>
<clipPath id="clip-5">
<rect x="0" y="0" width="33" height="32"/>
</clipPath>
<g id="source-29" clip-path="url(#clip-5)">
<g clip-path="url(#clip-3)">
<g mask="url(#mask-1)">
<use xlink:href="#source-26"/>
</g>
</g>
</g>
<clipPath id="clip-6">
<path clip-rule="nonzero" d="M 0 0 L 32.625 0 L 32.625 32 L 0 32 Z M 0 0 "/>
</clipPath>
<image id="source-40" x="0" y="0" width="33" height="32" xlink:href="data:image/png;base64,iVBORw0KGgoAAAANSUhEUgAAACEAAAAgCAYAAACcuBHKAAAABmJLR0QA/wD/AP+gvaeTAAAAVElEQVRYhe3OOwqEUBREwVJEXcXsf2FuwMTAD05iZPgUEenK7oWGQ0S8WHXTbn86osYP3XHPGLCURjQFmwot+tOvWEnEjhHTca/YrkRERERERHzSHxE6CPrd8uPIAAAAAElFTkSuQmCC"/>
<mask id="mask-2">
<g filter="url(#filter-remove-color)">
<use xlink:href="#source-40"/>
</g>
</mask>
<clipPath id="clip-7">
<rect x="0" y="0" width="33" height="32"/>
</clipPath>
<g id="source-39" clip-path="url(#clip-7)">
<path fill-rule="nonzero" fill="rgb(0%, 0%, 0%)" fill-opacity="1" d="M 15.859375 8 L 12.972656 8 C 13.746094 9.628906 15.386719 10.667969 17.191406 10.667969 L 17.191406 9.332031 C 17.1875 8.597656 16.59375 8.003906 15.859375 8 M 15.859375 8 "/>
</g>
<clipPath id="clip-8">
<rect x="0" y="0" width="33" height="32"/>
</clipPath>
<g id="source-42" clip-path="url(#clip-8)">
<g clip-path="url(#clip-6)">
<g mask="url(#mask-2)">
<use xlink:href="#source-39"/>
</g>
</g>
</g>
<clipPath id="clip-9">
<path clip-rule="nonzero" d="M 0 0 L 32.625 0 L 32.625 32 L 0 32 Z M 0 0 "/>
</clipPath>
<image id="source-54" x="0" y="0" width="33" height="32" xlink:href="data:image/png;base64,iVBORw0KGgoAAAANSUhEUgAAACEAAAAgCAYAAACcuBHKAAAABmJLR0QA/wD/AP+gvaeTAAAAaElEQVRYhe3WMQ6AIAxG4Yewev9reoAmOHVxECg1cfi/uSQvXQqIiMickjzXv4powAnUwZwBVySiLcyNZkNbWIkovG8tHABw7DzOoginCKcIpwinCDd7Ozqb9yEjwiYiLBrxi0+NyNMNWkoLJ5p4kXoAAAAASUVORK5CYII="/>
<mask id="mask-3">
<g filter="url(#filter-remove-color)">
<use xlink:href="#source-54"/>
</g>
</mask>
<clipPath id="clip-10">
<rect x="0" y="0" width="33" height="32"/>
</clipPath>
<g id="source-53" clip-path="url(#clip-10)">
<path fill-rule="nonzero" fill="rgb(0%, 0%, 0%)" fill-opacity="1" d="M 18.191406 12 L 18.191406 24.671875 C 18.191406 25.292969 17.757812 25.828125 17.152344 25.960938 C 17.058594 25.988281 16.960938 26 16.863281 26 L 9.769531 26 C 9.640625 25.671875 9.53125 25.339844 9.441406 25 C 9.277344 24.347656 9.191406 23.675781 9.191406 23 L 9.191406 13.5 C 9.191406 13.101562 9.347656 12.71875 9.628906 12.4375 C 9.910156 12.15625 10.292969 12 10.691406 12 Z M 18.191406 12 "/>
</g>
<clipPath id="clip-11">
<rect x="0" y="0" width="33" height="32"/>
</clipPath>
<g id="source-56" clip-path="url(#clip-11)">
<g clip-path="url(#clip-9)">
<g mask="url(#mask-3)">
<use xlink:href="#source-53"/>
</g>
</g>
</g>
<clipPath id="clip-12">
<path clip-rule="nonzero" d="M 0 0 L 32.625 0 L 32.625 32 L 0 32 Z M 0 0 "/>
</clipPath>
<image id="source-68" x="0" y="0" width="33" height="32" xlink:href="data:image/png;base64,iVBORw0KGgoAAAANSUhEUgAAACEAAAAgCAYAAACcuBHKAAAABmJLR0QA/wD/AP+gvaeTAAAAdklEQVRYhe3WOwqAMBBF0Rs/6Cbc/7pchVpobJxG0HyMkOJdSBOGcLoMKKWUistFzrWBWQ/sfyJ6YAKGF8ACzLmILmLGAeN1nhBHLiAWcQcVr/nj0dSEsISwhLCEsISwqkCkfGA+8b4owgNrALF9QVSxWamqOgFhkxAnamSvxgAAAABJRU5ErkJggg=="/>
<mask id="mask-4">
<g filter="url(#filter-remove-color)">
<use xlink:href="#source-68"/>
</g>
</mask>
<clipPath id="clip-13">
<rect x="0" y="0" width="33" height="32"/>
</clipPath>
<g id="source-67" clip-path="url(#clip-13)">
<path fill-rule="nonzero" fill="rgb(0%, 0%, 0%)" fill-opacity="1" d="M 17.191406 12 L 17.191406 25.671875 C 17.191406 25.769531 17.179688 25.867188 17.152344 25.960938 C 17.019531 26.566406 16.484375 27 15.863281 27 L 10.269531 27 C 10.078125 26.679688 9.910156 26.347656 9.769531 26 C 9.640625 25.671875 9.53125 25.339844 9.441406 25 C 9.277344 24.347656 9.191406 23.675781 9.191406 23 L 9.191406 13.5 C 9.191406 13.101562 9.347656 12.71875 9.628906 12.4375 C 9.910156 12.15625 10.292969 12 10.691406 12 Z M 17.191406 12 "/>
</g>
<clipPath id="clip-14">
<rect x="0" y="0" width="33" height="32"/>
</clipPath>
<g id="source-70" clip-path="url(#clip-14)">
<g clip-path="url(#clip-12)">
<g mask="url(#mask-4)">
<use xlink:href="#source-67"/>
</g>
</g>
</g>
<clipPath id="clip-15">
<path clip-rule="nonzero" d="M 0 0 L 32.625 0 L 32.625 32 L 0 32 Z M 0 0 "/>
</clipPath>
<image id="source-82" x="0" y="0" width="33" height="32" xlink:href="data:image/png;base64,iVBORw0KGgoAAAANSUhEUgAAACEAAAAgCAYAAACcuBHKAAAABmJLR0QA/wD/AP+gvaeTAAAAfklEQVRYhe3WSwqAMAxF0av424T735eb0InUUUDEamIROnhn4iTIpUIjiIiITxOYy82my/OXiB6YgeEhYgWWrxGdY6YBJmDkPjpRcAreiHOM9/OFtH+8NEoRRhFGEUYRpoqIyLWd2w9Fe8MbYVtyJ7/AtpKIyP/Em+ITEanKAdeTDyKIsScWAAAAAElFTkSuQmCC"/>
<mask id="mask-5">
<g filter="url(#filter-remove-color)">
<use xlink:href="#source-82"/>
</g>
</mask>
<clipPath id="clip-16">
<rect x="0" y="0" width="33" height="32"/>
</clipPath>
<g id="source-81" clip-path="url(#clip-16)">
<path fill-rule="nonzero" fill="rgb(0%, 0%, 0%)" fill-opacity="1" d="M 17.191406 12 L 17.191406 23.671875 C 17.1875 24.402344 16.59375 24.996094 15.863281 25 L 9.441406 25 C 9.277344 24.347656 9.191406 23.675781 9.191406 23 L 9.191406 13.5 C 9.191406 13.101562 9.347656 12.71875 9.628906 12.4375 C 9.910156 12.15625 10.292969 12 10.691406 12 Z M 17.191406 12 "/>
</g>
<clipPath id="clip-17">
<rect x="0" y="0" width="33" height="32"/>
</clipPath>
<g id="source-84" clip-path="url(#clip-17)">
<g clip-path="url(#clip-15)">
<g mask="url(#mask-5)">
<use xlink:href="#source-81"/>
</g>
</g>
</g>
<clipPath id="clip-18">
<path clip-rule="nonzero" d="M 0 0 L 32.625 0 L 32.625 32 L 0 32 Z M 0 0 "/>
</clipPath>
<image id="source-96" x="0" y="0" width="33" height="32" xlink:href="data:image/png;base64,iVBORw0KGgoAAAANSUhEUgAAACEAAAAgCAYAAACcuBHKAAAABmJLR0QA/wD/AP+gvaeTAAAAgElEQVRYhe3WSwqAIBRG4WNFtIr2v7kaN7DHJEFEQrtFDf4PpMlFDgUmiIhIGVcxl5vdk+drES0wAn1mfgVmYLJEdAUzDhjOlUb4wj3MEXFMHGH6BLHmqY0sFBEoIlBEoIjgFxE1x/Zjx/SdiB1YgI38X9RbI2ruE1dee0sinzkAw5AOKbzB5isAAAAASUVORK5CYII="/>
<mask id="mask-6">
<g filter="url(#filter-remove-color)">
<use xlink:href="#source-96"/>
</g>
</mask>
<clipPath id="clip-19">
<rect x="0" y="0" width="33" height="32"/>
</clipPath>
<g id="source-95" clip-path="url(#clip-19)">
<path fill-rule="nonzero" fill="rgb(0%, 0%, 0%)" fill-opacity="1" d="M 10.691406 12 C 10.292969 12 9.910156 12.15625 9.628906 12.4375 C 9.347656 12.71875 9.191406 13.101562 9.191406 13.5 L 9.191406 23 C 9.191406 23.675781 9.273438 24.347656 9.441406 25 L 14.863281 25 C 15.59375 24.992188 16.183594 24.402344 16.191406 23.671875 L 16.191406 12 Z M 10.691406 12 "/>
</g>
<clipPath id="clip-20">
<rect x="0" y="0" width="33" height="32"/>
</clipPath>
<g id="source-98" clip-path="url(#clip-20)">
<g clip-path="url(#clip-18)">
<g mask="url(#mask-6)">
<use xlink:href="#source-95"/>
</g>
</g>
</g>
</defs>
<path fill-rule="nonzero" fill="rgb(48.235294%, 51.372552%, 92.156863%)" fill-opacity="1" d="M 21.859375 6 C 21.859375 8.578125 19.769531 10.667969 17.191406 10.667969 C 14.613281 10.667969 12.523438 8.578125 12.523438 6 C 12.5625 3.449219 14.640625 1.398438 17.191406 1.398438 C 19.742188 1.398438 21.820312 3.449219 21.859375 6 M 21.859375 6 "/>
<use xlink:href="#source-15"/>
<use xlink:href="#source-29"/>
<path fill-rule="nonzero" fill="rgb(31.37255%, 34.901962%, 78.823531%)" fill-opacity="1" d="M 31.191406 7.5 C 31.191406 9.433594 29.625 11 27.691406 11 C 25.757812 11 24.191406 9.433594 24.191406 7.5 C 24.191406 5.566406 25.757812 4 27.691406 4 C 29.625 4 31.191406 5.566406 31.191406 7.5 M 30.691406 12 L 22.832031 12 C 22.480469 12 22.191406 12.285156 22.191406 12.640625 L 22.191406 20.75 C 22.148438 23.167969 23.800781 25.289062 26.15625 25.835938 C 27.632812 26.144531 29.167969 25.773438 30.339844 24.820312 C 31.511719 23.871094 32.191406 22.445312 32.191406 20.9375 L 32.191406 13.5 C 32.191406 12.671875 31.519531 12 30.691406 12 M 30.691406 12 "/>
<path fill-rule="nonzero" fill="rgb(48.235294%, 51.372552%, 92.156863%)" fill-opacity="1" d="M 25.191406 13.5 L 25.191406 23 C 25.191406 26.617188 22.757812 29.785156 19.265625 30.722656 C 15.769531 31.660156 12.082031 30.132812 10.269531 27 C 10.078125 26.679688 9.910156 26.347656 9.769531 26 C 9.640625 25.671875 9.53125 25.339844 9.441406 25 C 9.277344 24.347656 9.191406 23.675781 9.191406 23 L 9.191406 13.5 C 9.191406 13.101562 9.347656 12.71875 9.628906 12.4375 C 9.910156 12.15625 10.292969 12 10.691406 12 L 23.691406 12 C 24.089844 12 24.472656 12.15625 24.753906 12.4375 C 25.035156 12.71875 25.191406 13.101562 25.191406 13.5 M 25.191406 13.5 "/>
<use xlink:href="#source-42"/>
<use xlink:href="#source-56"/>
<use xlink:href="#source-70"/>
<use xlink:href="#source-84"/>
<use xlink:href="#source-98"/>
<path fill-rule="nonzero" fill="rgb(29.411766%, 32.549021%, 73.725492%)" fill-opacity="1" d="M 1.523438 8 L 14.859375 8 C 15.59375 8 16.191406 8.597656 16.191406 9.332031 L 16.191406 22.667969 C 16.191406 23.402344 15.59375 24 14.859375 24 L 1.523438 24 C 0.789062 24 0.191406 23.402344 0.191406 22.667969 L 0.191406 9.332031 C 0.191406 8.597656 0.789062 8 1.523438 8 M 1.523438 8 "/>
<path fill-rule="nonzero" fill="rgb(100%, 100%, 100%)" fill-opacity="1" d="M 12.171875 12.976562 L 9.179688 12.976562 L 9.179688 20.996094 L 7.21875 20.996094 L 7.21875 12.976562 L 4.210938 12.976562 L 4.210938 11.003906 L 12.171875 11.003906 Z M 12.171875 12.976562 "/>
</svg>

<svg role="img" viewBox="0 0 32.547 32" xmlns="http://www.w3.org/2000/svg"><defs><clipPath id="teams_svg__b"><path d="M0 0h32.625v32H0Zm0 0"/></clipPath><clipPath id="teams_svg__a"><path d="M0 0h33v32H0z"/></clipPath><clipPath id="teams_svg__f"><path d="M0 0h32.625v32H0Zm0 0"/></clipPath><clipPath id="teams_svg__e"><path d="M0 0h33v32H0z"/></clipPath><clipPath id="teams_svg__j"><path d="M0 0h32.625v32H0Zm0 0"/></clipPath><clipPath id="teams_svg__i"><path d="M0 0h33v32H0z"/></clipPath><clipPath id="teams_svg__n"><path d="M0 0h32.625v32H0Zm0 0"/></clipPath><clipPath id="teams_svg__m"><path d="M0 0h33v32H0z"/></clipPath><clipPath id="teams_svg__r"><path d="M0 0h32.625v32H0Zm0 0"/></clipPath><clipPath id="teams_svg__q"><path d="M0 0h33v32H0z"/></clipPath><clipPath id="teams_svg__v"><path d="M0 0h32.625v32H0Zm0 0"/></clipPath><clipPath id="teams_svg__u"><path d="M0 0h33v32H0z"/></clipPath><clipPath id="teams_svg__z"><path d="M0 0h32.625v32H0Zm0 0"/></clipPath><clipPath id="teams_svg__y"><path d="M0 0h33v32H0z"/></clipPath><g clip-path="url(#teams_svg__a)" id="teams_svg__d"><path d="M16.86 7h-4.227l.02.094.003.008.02.085a4.674 4.674 0 0 0 5.515 3.372V8.332A1.34 1.34 0 0 0 16.86 7m0 0" fill="rgb(0%, 0%, 0%)"/></g><g clip-path="url(#teams_svg__b)" id="teams_svg__K" mask="url(#teams_svg__c)"><use href="#teams_svg__d"/></g><g clip-path="url(#teams_svg__e)" id="teams_svg__h"><path d="M15.86 8h-2.887a4.67 4.67 0 0 0 4.218 2.668V9.332A1.34 1.34 0 0 0 15.86 8m0 0" fill="rgb(0%, 0%, 0%)"/></g><g clip-path="url(#teams_svg__f)" id="teams_svg__L" mask="url(#teams_svg__g)"><use href="#teams_svg__h"/></g><g clip-path="url(#teams_svg__i)" id="teams_svg__l"><path d="M15.86 8h-2.887a4.67 4.67 0 0 0 4.218 2.668V9.332A1.34 1.34 0 0 0 15.86 8m0 0" fill="rgb(0%, 0%, 0%)"/></g><g clip-path="url(#teams_svg__j)" id="teams_svg__M" mask="url(#teams_svg__k)"><use href="#teams_svg__l"/></g><g clip-path="url(#teams_svg__m)" id="teams_svg__p"><path d="M18.191 12v12.672a1.32 1.32 0 0 1-1.039 1.289q-.14.04-.289.039H9.77a9 9 0 0 1-.329-1 8.2 8.2 0 0 1-.25-2v-9.5c0-.398.157-.781.438-1.062A1.5 1.5 0 0 1 10.69 12Zm0 0" fill="rgb(0%, 0%, 0%)"/></g><g clip-path="url(#teams_svg__n)" id="teams_svg__N" mask="url(#teams_svg__o)"><use href="#teams_svg__p"/></g><g clip-path="url(#teams_svg__q)" id="teams_svg__t"><path d="M17.191 12v13.672q.002.148-.039.289A1.32 1.32 0 0 1 15.863 27H10.27a7 7 0 0 1-.5-1 9 9 0 0 1-.329-1 8.2 8.2 0 0 1-.25-2v-9.5c0-.398.157-.781.438-1.062A1.5 1.5 0 0 1 10.69 12Zm0 0" fill="rgb(0%, 0%, 0%)"/></g><g clip-path="url(#teams_svg__r)" id="teams_svg__O" mask="url(#teams_svg__s)"><use href="#teams_svg__t"/></g><g clip-path="url(#teams_svg__u)" id="teams_svg__x"><path d="M17.191 12v11.672A1.337 1.337 0 0 1 15.863 25H9.441a8.2 8.2 0 0 1-.25-2v-9.5c0-.398.157-.781.438-1.062A1.5 1.5 0 0 1 10.69 12Zm0 0" fill="rgb(0%, 0%, 0%)"/></g><g clip-path="url(#teams_svg__v)" id="teams_svg__P" mask="url(#teams_svg__w)"><use href="#teams_svg__x"/></g><g clip-path="url(#teams_svg__y)" id="teams_svg__B"><path d="M10.691 12a1.5 1.5 0 0 0-1.062.438A1.5 1.5 0 0 0 9.19 13.5V23c0 .676.082 1.348.25 2h5.422a1.34 1.34 0 0 0 1.328-1.328V12Zm0 0" fill="rgb(0%, 0%, 0%)"/></g><g clip-path="url(#teams_svg__z)" id="teams_svg__Q" mask="url(#teams_svg__A)"><use href="#teams_svg__B"/></g><image height="32" href="data:image/png;base64,iVBORw0KGgoAAAANSUhEUgAAACEAAAAgCAYAAACcuBHKAAAABmJLR0QA/wD/AP+gvaeTAAAAVklEQVRYhe3SuwqAMBBE0euj8f8/1VKiFqYIwWoQBbkH0gQmLLMBSfeGBzNHOsQcZJZ62mF2YAW2t4aYam5s7gpZq9A99JmkicJVe7+O+E9IkiRJv3QC298JDNtDLP0AAAAASUVORK5CYII=" id="teams_svg__D" width="33" x="0" y="0"/><image height="32" href="data:image/png;base64,iVBORw0KGgoAAAANSUhEUgAAACEAAAAgCAYAAACcuBHKAAAABmJLR0QA/wD/AP+gvaeTAAAAVElEQVRYhe3OOwqEUBREwVJEXcXsf2FuwMTAD05iZPgUEenK7oWGQ0S8WHXTbn86osYP3XHPGLCURjQFmwot+tOvWEnEjhHTca/YrkRERERERHzSHxE6CPrd8uPIAAAAAElFTkSuQmCC" id="teams_svg__E" width="33" x="0" y="0"/><image height="32" href="data:image/png;base64,iVBORw0KGgoAAAANSUhEUgAAACEAAAAgCAYAAACcuBHKAAAABmJLR0QA/wD/AP+gvaeTAAAAVElEQVRYhe3OOwqEUBREwVJEXcXsf2FuwMTAD05iZPgUEenK7oWGQ0S8WHXTbn86osYP3XHPGLCURjQFmwot+tOvWEnEjhHTca/YrkRERERERHzSHxE6CPrd8uPIAAAAAElFTkSuQmCC" id="teams_svg__F" width="33" x="0" y="0"/><image height="32" href="data:image/png;base64,iVBORw0KGgoAAAANSUhEUgAAACEAAAAgCAYAAACcuBHKAAAABmJLR0QA/wD/AP+gvaeTAAAAaElEQVRYhe3WMQ6AIAxG4Yewev9reoAmOHVxECg1cfi/uSQvXQqIiMickjzXv4powAnUwZwBVySiLcyNZkNbWIkovG8tHABw7DzOoginCKcIpwinCDd7Ozqb9yEjwiYiLBrxi0+NyNMNWkoLJ5p4kXoAAAAASUVORK5CYII=" id="teams_svg__G" width="33" x="0" y="0"/><image height="32" href="data:image/png;base64,iVBORw0KGgoAAAANSUhEUgAAACEAAAAgCAYAAACcuBHKAAAABmJLR0QA/wD/AP+gvaeTAAAAdklEQVRYhe3WOwqAMBBF0Rs/6Cbc/7pchVpobJxG0HyMkOJdSBOGcLoMKKWUistFzrWBWQ/sfyJ6YAKGF8ACzLmILmLGAeN1nhBHLiAWcQcVr/nj0dSEsISwhLCEsISwqkCkfGA+8b4owgNrALF9QVSxWamqOgFhkxAnamSvxgAAAABJRU5ErkJggg==" id="teams_svg__H" width="33" x="0" y="0"/><image height="32" href="data:image/png;base64,iVBORw0KGgoAAAANSUhEUgAAACEAAAAgCAYAAACcuBHKAAAABmJLR0QA/wD/AP+gvaeTAAAAfklEQVRYhe3WSwqAMAxF0av424T735eb0InUUUDEamIROnhn4iTIpUIjiIiITxOYy82my/OXiB6YgeEhYgWWrxGdY6YBJmDkPjpRcAreiHOM9/OFtH+8NEoRRhFGEUYRpoqIyLWd2w9Fe8MbYVtyJ7/AtpKIyP/Em+ITEanKAdeTDyKIsScWAAAAAElFTkSuQmCC" id="teams_svg__I" width="33" x="0" y="0"/><image height="32" href="data:image/png;base64,iVBORw0KGgoAAAANSUhEUgAAACEAAAAgCAYAAACcuBHKAAAABmJLR0QA/wD/AP+gvaeTAAAAgElEQVRYhe3WSwqAIBRG4WNFtIr2v7kaN7DHJEFEQrtFDf4PpMlFDgUmiIhIGVcxl5vdk+drES0wAn1mfgVmYLJEdAUzDhjOlUb4wj3MEXFMHGH6BLHmqY0sFBEoIlBEoIjgFxE1x/Zjx/SdiB1YgI38X9RbI2ruE1dee0sinzkAw5AOKbzB5isAAAAASUVORK5CYII=" id="teams_svg__J" width="33" x="0" y="0"/><mask id="teams_svg__c"><g filter="url(#teams_svg__C)"><use href="#teams_svg__D"/></g></mask><mask id="teams_svg__g"><g filter="url(#teams_svg__C)"><use href="#teams_svg__E"/></g></mask><mask id="teams_svg__k"><g filter="url(#teams_svg__C)"><use href="#teams_svg__F"/></g></mask><mask id="teams_svg__o"><g filter="url(#teams_svg__C)"><use href="#teams_svg__G"/></g></mask><mask id="teams_svg__s"><g filter="url(#teams_svg__C)"><use href="#teams_svg__H"/></g></mask><mask id="teams_svg__w"><g filter="url(#teams_svg__C)"><use href="#teams_svg__I"/></g></mask><mask id="teams_svg__A"><g filter="url(#teams_svg__C)"><use href="#teams_svg__J"/></g></mask><filter height="100%" id="teams_svg__C" width="100%" x="0%" y="0%"><feColorMatrix color-interpolation-filters="sRGB" values="0 0 0 0 1 0 0 0 0 1 0 0 0 0 1 0 0 0 1 0"/></filter></defs><path d="M21.86 6a4.668 4.668 0 1 1-9.337 0 4.67 4.67 0 0 1 4.668-4.602A4.67 4.67 0 0 1 21.859 6m0 0" fill="rgb(48.235294%, 51.372552%, 92.156863%)"/><use href="#teams_svg__K"/><use href="#teams_svg__L"/><path d="M31.191 7.5a3.5 3.5 0 1 1-7 0 3.5 3.5 0 1 1 7 0m-.5 4.5h-7.859a.64.64 0 0 0-.64.64v8.11a5.13 5.13 0 0 0 3.964 5.086 5 5 0 0 0 4.184-1.016 5 5 0 0 0 1.851-3.883V13.5a1.5 1.5 0 0 0-1.5-1.5m0 0" fill="rgb(31.37255%, 34.901962%, 78.823531%)"/><path d="M25.191 13.5V23a7.999 7.999 0 0 1-14.922 4 7 7 0 0 1-.5-1 9 9 0 0 1-.328-1 8.2 8.2 0 0 1-.25-2v-9.5c0-.398.157-.781.438-1.062A1.5 1.5 0 0 1 10.69 12h13c.399 0 .782.156 1.063.438a1.5 1.5 0 0 1 .437 1.062m0 0" fill="rgb(48.235294%, 51.372552%, 92.156863%)"/><use href="#teams_svg__M"/><use href="#teams_svg__N"/><use href="#teams_svg__O"/><use href="#teams_svg__P"/><use href="#teams_svg__Q"/><path d="M1.523 8H14.86c.735 0 1.332.598 1.332 1.332v13.336c0 .734-.597 1.332-1.332 1.332H1.523a1.334 1.334 0 0 1-1.332-1.332V9.332C.191 8.598.79 8 1.523 8m0 0" fill="rgb(29.411766%, 32.549021%, 73.725492%)"/><path d="M12.172 12.977H9.18v8.02H7.219v-8.02H4.21v-1.973h7.96Zm0 0" fill="rgb(100%, 100%, 100%)"/></svg>
